src/assets/images/icon_chart.svg

<svg width="104" height="104" viewBox="0 0 104 104" fill="none" xmlns="http://www.w3.org/2000/svg">
<path d="M92.258 104C95.3721 104 98.3587 102.516 100.561 99.8751C102.763 97.2339 104 93.6518 104 89.9167V33.5833C104 29.8482 102.763 26.266 100.561 23.6249C98.3587 20.9838 95.3721 19.5 92.258 19.5C89.1438 19.5 86.1572 20.9838 83.9552 23.6249C81.7532 26.266 80.5161 29.8482 80.5161 33.5833V89.9167C80.5161 93.6518 81.7532 97.2339 83.9552 99.8751C86.1572 102.516 89.1438 104 92.258 104Z" fill="#fff"/>
<path d="M11.7419 104C14.8561 104 17.8427 102.973 20.0447 101.144C22.2468 99.3158 23.4839 96.8359 23.4839 94.25V55.25C23.4839 52.6641 22.2468 50.1842 20.0447 48.3557C17.8427 46.5272 14.8561 45.5 11.7419 45.5C8.62777 45.5 5.64117 46.5272 3.43913 48.3557C1.23709 50.1842 0 52.6641 0 55.25V94.25C0 96.8359 1.23709 99.3158 3.43913 101.144C5.64117 102.973 8.62777 104 11.7419 104Z" fill="#fff"/>
<path d="M52 104C55.1141 104 58.1007 102.826 60.3028 100.736C62.5048 98.6466 63.7419 95.8124 63.7419 92.8571V11.1429C63.7419 8.18759 62.5048 5.35336 60.3028 3.26367C58.1007 1.17397 55.1141 0 52 0C48.8858 0 45.8992 1.17397 43.6972 3.26367C41.4951 5.35336 40.2581 8.18759 40.2581 11.1429V92.8571C40.2581 95.8124 41.4951 98.6466 43.6972 100.736C45.8992 102.826 48.8858 104 52 104Z" fill="#fff"/>
</svg>

<svg xmlns="http://www.w3.org/2000/svg" width="104" height="104" fill="none"><path fill="#fff" d="M92.258 104c3.114 0 6.1-1.484 8.303-4.125 2.202-2.641 3.439-6.223 3.439-9.958V33.583c0-3.735-1.237-7.317-3.439-9.958S95.372 19.5 92.258 19.5s-6.1 1.484-8.303 4.125c-2.202 2.641-3.439 6.223-3.439 9.958v56.334c0 3.735 1.237 7.317 3.44 9.958 2.201 2.641 5.188 4.125 8.302 4.125M11.742 104c3.114 0 6.1-1.027 8.303-2.856 2.202-1.828 3.439-4.308 3.439-6.894v-39c0-2.586-1.237-5.066-3.44-6.894-2.201-1.829-5.188-2.856-8.302-2.856s-6.1 1.027-8.303 2.856C1.237 50.184 0 52.664 0 55.25v39c0 2.586 1.237 5.066 3.44 6.894C5.64 102.973 8.627 104 11.741 104M52 104c3.114 0 6.1-1.174 8.303-3.264 2.202-2.09 3.439-4.924 3.439-7.879V11.143c0-2.955-1.237-5.79-3.44-7.88C58.102 1.175 55.115 0 52 0s-6.1 1.174-8.303 3.264c-2.202 2.09-3.439 4.924-3.439 7.879v81.714c0 2.955 1.237 5.79 3.44 7.879C45.898 102.826 48.885 104 52 104"/></svg>
